X:1
T:Deercliff's Retreat
C:Jane Rothfield
M:4/4
R:March
L:1/8
K:D
A/B/c/|"D"d3ef3 e|dedc A3 F|"G"GBAG "A"FDC2|"D"D4-D3 A/B/c/|
"D"d3ef3 e|dedc A3 F|"G"GBAG "A"FDC2|"D"D4-D2 DC||
"G"B,3 CD3B,|"D"A,2A,B,A,2 F2|"A"E3F ED C2|"D"D4-D2 C2|
"G"B,3 CD3B,|"D"A,2A,B,A,2 F2|"A"E3F ED C2|"D"D4-D4|]
W: © Jane Rothfield (BMI)  |  www.janerothfield.com  |  All rights reserved.
